X:151
T:score232
L:1/8
Q:1/4=96
M:6/8
I:linebreak $
K:G
!f! d/e/ | dBG ecG | dBG g3 | f3 efg |$ fef d2 B/c/ | dBG ecG | dBG g3 | f3 ed^c |$ dAF D2 |] %9
